X: 118103
Q: "Strathspey."
M: C
L: 1/8
K: Am
uB |\
ug |\
ve>vduB>uA G>AB>G | e>dB>A B2(B<g) |
e>dB>A G>AB>d | e>d (g<B) A2- Ag |\
e>dB>A G>AB>G | e>dB>A B2(B<g) |\
e>dB>A G>AB>d | e>d (g<B) A2- A |]


